assets/icons/uEA04-school-generic.svg

<svg xmlns="http://www.w3.org/2000/svg" viewBox="0 0 377.64 377.64"><path d="M369.64 354.74H8c-4.418 0-8-3.583-8-8s3.582-8 8-8h361.64c4.418 0 8 3.58 8 8s-3.582 8-8 8zm-14.672-36.464c-4.418 0-8-3.582-8-8V133.49H147.764c-4.418 0-8-3.582-8-8s3.582-8 8-8H354.97c4.417 0 8 3.582 8 8v184.785c-.002 4.42-3.583 8-8.002 8zm-277.86 0c-4.417 0-8-3.582-8-8v-131.07c0-4.418 3.583-8 8-8s8 3.582 8 8v131.07c0 4.418-3.58 8-8 8zm243.87-15.925h-32.584c-4.418 0-8-3.58-8-8v-46.53c0-4.42 3.582-8 8-8h32.584c4.418 0 8 3.58 8 8v46.53c0 4.42-3.582 8-8 8zm-24.584-16h16.584v-30.53h-16.584v30.53zm-40.713 16H223.1c-4.418 0-8-3.58-8-8v-46.53c0-4.42 3.582-8 8-8h32.584c4.42 0 8 3.58 8 8v46.53c0 4.42-3.58 8-8 8zm-24.58-16h16.59v-30.53H231.1v30.53zm-40.71 16H157.8c-4.42 0-8-3.58-8-8v-46.53c0-4.42 3.58-8 8-8h32.584c4.418 0 8 3.58 8 8v46.53c0 4.42-3.582 8-8 8zm-24.58-16h16.59v-30.53h-16.6v30.53zM41.73 269.37c-2.605 0-5.16-1.27-6.696-3.61-4.98-7.583-7.786-16.29-8.17-25.31C10.59 231.8 0 214.578 0 195.987c0-18.59 10.593-35.812 26.858-44.464 1.14-26.73 23.243-48.13 50.25-48.13 27.008 0 49.11 21.398 50.25 48.13 16.267 8.65 26.86 25.87 26.86 44.46s-10.594 35.81-26.86 44.46c-.386 8.97-3.168 17.645-8.104 25.21-2.414 3.7-7.37 4.74-11.07 2.326s-4.744-7.37-2.33-11.07c3.632-5.57 5.55-12.01 5.55-18.64 0-.76-.027-1.53-.084-2.36-.24-3.48 1.804-6.72 5.05-7.997 13.068-5.142 21.848-17.98 21.848-31.94s-8.78-26.795-21.847-31.94c-3.24-1.275-5.29-4.51-5.05-7.992.06-.83.09-1.602.09-2.36 0-18.91-15.38-34.293-34.29-34.293s-34.29 15.39-34.29 34.3c0 .763.03 1.56.085 2.356.243 3.487-1.8 6.72-5.05 8C24.78 169.19 16 182.02 16 195.98s8.78 26.798 21.847 31.94c3.247 1.278 5.292 4.513 5.05 7.995-.056.83-.084 1.603-.084 2.362 0 6.654 1.935 13.12 5.595 18.7 2.424 3.694 1.394 8.654-2.3 11.08-1.354.885-2.876 1.31-4.382 1.31zm279.253-50.69H288.4c-4.42 0-8-3.58-8-8v-46.53c0-4.42 3.58-8 8-8h32.583c4.416 0 8 3.58 8 8v46.53c0 4.42-3.584 8-8 8zm-24.584-16h16.58v-30.53h-16.59v30.53zm-40.72 16H223.1c-4.418 0-8-3.58-8-8v-46.53c0-4.42 3.582-8 8-8h32.584c4.42 0 8 3.58 8 8v46.53c0 4.42-3.58 8-8 8zm-24.58-16h16.585v-30.53H231.1v30.53zm-40.713 16h-15.16c-4.42 0-8-3.58-8-8s3.58-8 8-8h7.152v-30.53h-7.154c-4.42 0-8-3.58-8-8s3.58-8 8-8h15.15c4.42 0 8 3.58 8 8v46.53c0 4.42-3.58 8-8 8zm141.09-115.63c-4.42 0-8-3.58-8-8V38.9H209.77v56.15c0 4.418-3.58 8-8 8s-8-3.582-8-8V30.9c0-4.417 3.583-8 8-8h129.71c4.417 0 8 3.583 8 8v64.15c0 4.42-3.582 8-8 8zM298.2 90.03c-4.42 0-8-3.582-8-8V66.472c0-4.418 3.58-8 8-8s8 3.582 8 8v15.555c0 4.42-3.583 8-8 8zm-31.576 0c-4.418 0-8-3.582-8-8V66.472c0-4.418 3.582-8 8-8s8 3.582 8 8v15.555c0 4.42-3.582 8-8 8zm-31.572 0c-4.418 0-8-3.582-8-8V66.472c0-4.418 3.582-8 8-8s8 3.582 8 8v15.555c0 4.42-3.582 8-8 8z"/></svg>

<?xml version="1.0" encoding="iso-8859-1"?>
<!-- Generator: Adobe Illustrator 18.1.1, SVG Export Plug-In . SVG Version: 6.00 Build 0)  -->
<svg version="1.1" id="Capa_1" xmlns="http://www.w3.org/2000/svg" xmlns:xlink="http://www.w3.org/1999/xlink" x="0px" y="0px"
	 viewBox="0 0 377.64 377.64" style="enable-background:new 0 0 377.64 377.64;" xml:space="preserve">
<path d="M369.64,354.739H8c-4.418,0-8-3.582-8-8s3.582-8,8-8h361.64c4.418,0,8,3.582,8,8S374.058,354.739,369.64,354.739z
	 M354.968,318.276c-4.418,0-8-3.582-8-8V133.49H147.764c-4.418,0-8-3.582-8-8s3.582-8,8-8h207.205c4.418,0,8,3.582,8,8v184.785
	C362.968,314.694,359.387,318.276,354.968,318.276z M77.109,318.276c-4.418,0-8-3.582-8-8V179.206c0-4.418,3.582-8,8-8s8,3.582,8,8
	v131.069C85.109,314.694,81.527,318.276,77.109,318.276z M320.978,302.351h-32.584c-4.418,0-8-3.582-8-8v-46.532
	c0-4.418,3.582-8,8-8h32.584c4.418,0,8,3.582,8,8v46.532C328.978,298.77,325.396,302.351,320.978,302.351z M296.394,286.351h16.584
	v-30.532h-16.584V286.351z M255.681,302.351h-32.584c-4.418,0-8-3.582-8-8v-46.532c0-4.418,3.582-8,8-8h32.584c4.418,0,8,3.582,8,8
	v46.532C263.681,298.77,260.099,302.351,255.681,302.351z M231.097,286.351h16.584v-30.532h-16.584V286.351z M190.383,302.351
	h-32.585c-4.418,0-8-3.582-8-8v-46.532c0-4.418,3.582-8,8-8h32.585c4.418,0,8,3.582,8,8v46.532
	C198.383,298.77,194.801,302.351,190.383,302.351z M165.798,286.351h16.585v-30.532h-16.585V286.351z M41.725,269.371
	c-2.605,0-5.16-1.271-6.696-3.612c-4.978-7.587-7.782-16.295-8.17-25.311C10.593,231.797,0,214.575,0,195.984
	c0-18.59,10.593-35.812,26.858-44.464c1.139-26.731,23.243-48.128,50.251-48.128c27.007,0,49.11,21.396,50.25,48.127
	c16.266,8.651,26.859,25.874,26.859,44.464s-10.594,35.813-26.86,44.464c-0.386,8.972-3.168,17.646-8.104,25.209
	c-2.414,3.7-7.371,4.743-11.071,2.328c-3.7-2.415-4.743-7.371-2.328-11.071c3.631-5.565,5.55-12.008,5.55-18.634
	c0-0.759-0.028-1.532-0.085-2.362c-0.24-3.481,1.804-6.717,5.051-7.995c13.067-5.143,21.847-17.979,21.847-31.939
	s-8.78-26.797-21.847-31.939c-3.247-1.278-5.292-4.513-5.051-7.995c0.057-0.83,0.085-1.603,0.085-2.362
	c0-18.911-15.385-34.296-34.295-34.296c-18.911,0-34.297,15.385-34.297,34.296c0,0.765,0.028,1.559,0.084,2.358
	c0.242,3.483-1.802,6.72-5.051,7.999C24.779,169.188,16,182.023,16,195.984c0,13.962,8.779,26.797,21.846,31.939
	c3.247,1.278,5.292,4.513,5.051,7.995c-0.057,0.83-0.085,1.603-0.085,2.362c0,6.656,1.935,13.123,5.595,18.702
	c2.424,3.694,1.394,8.654-2.3,11.078C44.753,268.947,43.231,269.371,41.725,269.371z M320.978,218.677h-32.584c-4.418,0-8-3.582-8-8
	v-46.532c0-4.418,3.582-8,8-8h32.584c4.418,0,8,3.582,8,8v46.532C328.978,215.095,325.396,218.677,320.978,218.677z
	 M296.394,202.677h16.584v-30.532h-16.584V202.677z M255.681,218.677h-32.584c-4.418,0-8-3.582-8-8v-46.532c0-4.418,3.582-8,8-8
	h32.584c4.418,0,8,3.582,8,8v46.532C263.681,215.095,260.099,218.677,255.681,218.677z M231.097,202.677h16.584v-30.532h-16.584
	V202.677z M190.383,218.677h-15.153c-4.418,0-8-3.582-8-8s3.582-8,8-8h7.153v-30.532h-7.153c-4.418,0-8-3.582-8-8s3.582-8,8-8
	h15.153c4.418,0,8,3.582,8,8v46.532C198.383,215.095,194.801,218.677,190.383,218.677z M331.479,103.05c-4.418,0-8-3.582-8-8V38.901
	H209.771V95.05c0,4.418-3.582,8-8,8s-8-3.582-8-8V30.901c0-4.418,3.582-8,8-8h129.708c4.418,0,8,3.582,8,8V95.05
	C339.479,99.469,335.898,103.05,331.479,103.05z M298.199,90.028c-4.418,0-8-3.582-8-8V66.472c0-4.418,3.582-8,8-8s8,3.582,8,8
	v15.555C306.199,86.446,302.617,90.028,298.199,90.028z M266.624,90.028c-4.418,0-8-3.582-8-8V66.472c0-4.418,3.582-8,8-8
	s8,3.582,8,8v15.555C274.624,86.446,271.042,90.028,266.624,90.028z M235.052,90.028c-4.418,0-8-3.582-8-8V66.472
	c0-4.418,3.582-8,8-8s8,3.582,8,8v15.555C243.052,86.446,239.47,90.028,235.052,90.028z"/>
<g>
</g>
<g>
</g>
<g>
</g>
<g>
</g>
<g>
</g>
<g>
</g>
<g>
</g>
<g>
</g>
<g>
</g>
<g>
</g>
<g>
</g>
<g>
</g>
<g>
</g>
<g>
</g>
<g>
</g>
</svg>
